image/linkedin.svg

<svg width="44" height="44" viewBox="0 0 44 44" fill="none" xmlns="http://www.w3.org/2000/svg">
<path d="M44 21.9999C44 28.0751 41.5376 33.5751 37.5564 37.5563C33.5751 41.5375 28.0751 43.9999 22 43.9999C15.9249 43.9999 10.4249 41.5375 6.44365 37.5563C2.46243 33.5751 0 28.0751 0 21.9999C0 15.9248 2.46243 10.4248 6.44365 6.44359C10.4249 2.46237 15.9249 -6.10352e-05 22 -6.10352e-05C28.0751 -6.10352e-05 33.5751 2.46237 37.5564 6.44359C41.5376 10.4248 44 15.9248 44 21.9999Z" fill="white"/>
<g clip-path="url(#clip0_1_502)">
<path d="M31.995 32V31.9992H32V24.6642C32 21.0759 31.2275 18.3117 27.0325 18.3117C25.0158 18.3117 23.6625 19.4184 23.11 20.4675H23.0517V18.6467H19.0742V31.9992H23.2158V25.3875C23.2158 23.6467 23.5458 21.9634 25.7017 21.9634C27.8258 21.9634 27.8575 23.95 27.8575 25.4992V32H31.995Z" fill="#AFB1B8"/>
<path d="M12.33 18.6475H16.4767V32H12.33V18.6475Z" fill="#AFB1B8"/>
<path d="M14.4017 12C13.0758 12 12 13.0758 12 14.4017C12 15.7275 13.0758 16.8258 14.4017 16.8258C15.7275 16.8258 16.8033 15.7275 16.8033 14.4017C16.8025 13.0758 15.7267 12 14.4017 12V12Z" fill="#AFB1B8"/>
</g>
<defs>
<clipPath id="clip0_1_502">
<rect width="20" height="20" fill="white" transform="translate(12 12)"/>
</clipPath>
</defs>
</svg>

<svg width="44" height="44" fill="none" xmlns="http://www.w3.org/2000/svg"><path d="M44 22a21.931 21.931 0 0 1-6.444 15.556A21.931 21.931 0 0 1 22 44a21.931 21.931 0 0 1-15.556-6.444A21.931 21.931 0 0 1 0 22 21.931 21.931 0 0 1 6.444 6.444 21.931 21.931 0 0 1 22 0a21.931 21.931 0 0 1 15.556 6.444A21.931 21.931 0 0 1 44 22Z" fill="#fff"/><g clip-path="url(#a)" fill="#AFB1B8"><path d="M31.995 32H32v-7.336c0-3.588-.773-6.352-4.968-6.352-2.016 0-3.37 1.106-3.922 2.155h-.058v-1.82h-3.978v13.352h4.142v-6.611c0-1.741.33-3.425 2.486-3.425 2.124 0 2.155 1.987 2.155 3.536V32h4.138ZM12.33 18.648h4.147V32H12.33V18.648ZM14.402 12A2.402 2.402 0 0 0 12 14.402c0 1.325 1.076 2.424 2.402 2.424 1.325 0 2.401-1.099 2.401-2.424A2.403 2.403 0 0 0 14.402 12Z"/></g><defs><clipPath id="a"><path fill="#fff" transform="translate(12 12)" d="M0 0h20v20H0z"/></clipPath></defs></svg>
